X:2012
T:Fiddler y Chiarn 
C:Thomas Kneen, Port St Mary
O:Isle of Man
S:Traditional
N: Played by Clague y Fiddler at the first landing of the 
N:Duke of Athol as Lord in Mann 
Z:Clague collection
B:Kiaull Vannin #12
M:6/8 
Q:160 
K:G 
B2c d2e |d2B c2B|-BAG A3|-A2 BA3|B2c d2e|d2B c2B|-BAG A3|-A2 BA3| 
||:D3 G3|-GAB A3|-ABc Bdd|gfe d3|-d2c B2c|dBG A2B|cAF G3|-G2 A G3:|| 
